storage/app/icons/phosphoricons/duotone/git-pull-request-duotone.svg

<svg xmlns="http://www.w3.org/2000/svg" fill="currentColor" viewBox="0 0 256 256"><path d="M96 64a24 24 0 1 1-24-24 24 24 0 0 1 24 24m104 104a24 24 0 1 0 24 24 24 24 0 0 0-24-24" opacity=".2"/><path d="M104 64a32 32 0 1 0-40 31v66a32 32 0 1 0 16 0V95a32.06 32.06 0 0 0 24-31m-48 0a16 16 0 1 1 16 16 16 16 0 0 1-16-16m32 128a16 16 0 1 1-16-16 16 16 0 0 1 16 16m120-31v-50.37a23.85 23.85 0 0 0-7-17L163.31 56H192a8 8 0 0 0 0-16h-48a8 8 0 0 0-8 8v48a8 8 0 0 0 16 0V67.31L189.66 105a8 8 0 0 1 2.34 5.66V161a32 32 0 1 0 16 0m-8 47a16 16 0 1 1 16-16 16 16 0 0 1-16 16"/></svg>

<svg xmlns="http://www.w3.org/2000/svg" viewBox="0 0 256 256" fill="currentColor"><path d="M96,64A24,24,0,1,1,72,40,24,24,0,0,1,96,64ZM200,168a24,24,0,1,0,24,24A24,24,0,0,0,200,168Z" opacity="0.2"/><path d="M104,64A32,32,0,1,0,64,95v66a32,32,0,1,0,16,0V95A32.06,32.06,0,0,0,104,64ZM56,64A16,16,0,1,1,72,80,16,16,0,0,1,56,64ZM88,192a16,16,0,1,1-16-16A16,16,0,0,1,88,192Zm120-31V110.63a23.85,23.85,0,0,0-7-17L163.31,56H192a8,8,0,0,0,0-16H144a8,8,0,0,0-8,8V96a8,8,0,0,0,16,0V67.31L189.66,105a8,8,0,0,1,2.34,5.66V161a32,32,0,1,0,16,0Zm-8,47a16,16,0,1,1,16-16A16,16,0,0,1,200,208Z"/></svg>
